X: 1
T: an Ceannabh\'ain Bh\'ana
T: the Little Fair Cannavans
R: slip-jig
Z: 2020 John Chambers <jc:trillian.mit.edu>
S: https://www.facebook.com/groups/Fiddletuneoftheday/ 2020-11-15
S: https://www.facebook.com/groups/Fiddletuneoftheday/photos/
N: There's a C# in the key signature, but no C notes in the tune.
M: 9/8
L: 1/8
K: G
   A | BGG AGE GED | EGD DEG A2d | BGG AGE GED | EGD DEF G2 :|
|: A | Bdd edd BAG | Bdd edB A2G | Bdd edd BAG | GED DEF G2 :|
